X:510
T: Ansingelied an den Fastnachtstagen (216), S. 469
N: T0398
O: Luxemburg
S: Singendes Volk, Esch-Alzette, 1937 posth.]
R: Ansingelied fr Volks- und Festtage,
M: 2/4
L: 1/8
K: E
=G | =GGAA | =G2E2 |
GGAA | =G2E2 |
GGAA | =G=FE2 |
GGAA | =G=FE

@@@ Tune index: 8564
